X:94
T: KREIS KREIS KESSEL
N: K2073
O: Europa, Mitteleuropa, Deutschland, Weimar
R: Kinder - Lied, Reigen, Tanz - Spiel
M: 2/4
L: 1/16
K: F
 | c4d4 | c4A2z2 |
c2c2d2d2 | c4A2z2 |
B2B2G2G2 | c2c2A4 |
d3cB2A2 | G2G2F4

